cssgg/google.svg

<svg
  width="24"
  height="24"
  viewBox="0 0 24 24"
  fill="none"
  xmlns="http://www.w3.org/2000/svg"
>
  <path
    d="M6 12C6 15.3137 8.68629 18 12 18C14.6124 18 16.8349 16.3304 17.6586 14H12V10H21.8047V14H21.8C20.8734 18.5645 16.8379 22 12 22C6.47715 22 2 17.5228 2 12C2 6.47715 6.47715 2 12 2C15.445 2 18.4831 3.742 20.2815 6.39318L17.0039 8.68815C15.9296 7.06812 14.0895 6 12 6C8.68629 6 6 8.68629 6 12Z"
    fill="currentColor"
  />
</svg>

<svg viewBox="0 0 24 24" xmlns="http://www.w3.org/2000/svg"><path d="M6 12c0 3.31 2.68 6 6 6 2.61 0 4.83-1.67 5.65-4h-5.66v-4h9.8v4h-.01c-.93 4.56-4.97 8-9.8 8 -5.53 0-10-4.48-10-10 0-5.53 4.47-10 10-10 3.44 0 6.48 1.742 8.28 4.39l-3.28 2.29c-1.08-1.63-2.92-2.69-5.01-2.69 -3.32 0-6 2.68-6 6Z"/></svg>
